X:22
T:Hunt The Squirrel
M:6/8
L:1/8
R:Jig
K:G
D | G2 d d2 e | d3 B3 | GAB cBA | GAB A2 D | G2 d d2 e | 
d3 B3 | GAB cBA | G3 G2 :: G | c2 d edc | c2 d edc | 
c2 d e2 f | g3 gfe | d2 B d2 B | d3 B3 | GAB cBA | G3 G2 :|

